; generated by PrusaSlicer 2.3.3+win64 on 2022-02-27 at 03:25:41 UTC

; 

; external perimeters extrusion width = 0.60mm
; perimeters extrusion width = 0.50mm
; infill extrusion width = 0.50mm
; solid infill extrusion width = 0.50mm
; top infill extrusion width = 0.45mm
; first layer extrusion width = 0.42mm

M73 P0 R26
M73 Q0 S26
M201 X1000 Y1000 Z200 E5000 ; sets maximum accelerations, mm/sec^2
M203 X200 Y200 Z12 E120 ; sets maximum feedrates, mm/sec
M204 P1250 R1250 T1250 ; sets acceleration (P, T) and retract acceleration (R), mm/sec^2
M205 X8.00 Y8.00 Z0.40 E4.50 ; sets the jerk limits, mm/sec
M205 S0 T0 ; sets the minimum extruding and travel feed rate, mm/sec
M107
;TYPE:Custom
M862.3 P "MK3S" ; printer model check
M862.1 P0.4 ; nozzle diameter check
M115 U3.9.3 ; tell printer latest fw version
G90 ; use absolute coordinates
M83 ; extruder relative mode
M104 S215 ; set extruder temp
M140 S60 ; set bed temp
M190 S60 ; wait for bed temp
M109 S215 ; wait for extruder temp
G28 W ; home all without mesh bed level
G80 ; mesh bed leveling
G1 Y-3.0 F1000.0 ; go outside print area
G92 E0.0
G1 X60.0 E9.0 F1000.0 ; intro line
G1 X100.0 E12.5 F1000.0 ; intro line
G92 E0.0
M221 S95

; Don't change E values below. Excessive value can damage the printer.

M907 E538 ; set extruder motor current
G21 ; set units to millimeters
G90 ; use absolute coordinates
M83 ; use relative distances for extrusion
M900 K0.05 ; Filament gcode LA 1.5
M900 K30 ; Filament gcode LA 1.0
;LAYER_CHANGE
;Z:0.2
;HEIGHT:0.2
;BEFORE_LAYER_CHANGE
G92 E0.0
;0.2


G1 E-0.80000 F2100.000
G1 Z0.400 F10800.000
;AFTER_LAYER_CHANGE
;0.2
G1 X68.340 Y82.006
G1 Z0.200
G1 E0.80000 F2100.000
M204 S1000
;TYPE:Skirt
;WIDTH:0.42
G1 F1200.000
G1 X68.753 Y81.387 E0.02331
G1 X73.848 Y76.290 E0.22598
G1 X74.485 Y75.850 E0.02426
G1 X74.977 Y75.681 E0.01633
G1 X75.495 Y75.623 E0.01633
G1 X179.504 Y75.623 E3.26113
G1 X180.342 Y75.777 E0.02673
G1 X181.069 Y76.215 E0.02661
G1 X181.596 Y76.880 E0.02661
G1 X181.857 Y77.691 E0.02673
G1 X181.859 Y84.289 E0.20686
G1 X181.746 Y84.778 E0.01574
G1 X181.533 Y85.232 E0.01574
G1 X181.229 Y85.631 E0.01574
G1 X180.848 Y85.958 E0.01574
G1 X94.513 Y134.150 E3.10016
M73 P1 R26
M73 Q1 S26
G1 X94.028 Y134.318 E0.01609
G1 X93.518 Y134.377 E0.01609
G1 X75.491 Y134.377 E0.56521
G1 X74.955 Y134.314 E0.01692
G1 X74.370 Y134.092 E0.01965
G1 X73.859 Y133.721 E0.01977
G1 X68.790 Y128.652 E0.22479
G1 X68.350 Y128.015 E0.02426
G1 X68.182 Y127.527 E0.01621
G1 X68.123 Y127.013 E0.01621
G1 X68.139 Y82.722 E1.38873
M73 P1 R25
G1 X68.324 Y82.064 E0.02143
; printing object Stylus mount (1).stl id:0 copy 0
;WIPE_START
G1 F8640.000
G1 X68.753 Y81.387 E-0.18490
G1 X70.514 Y79.626 E-0.57510
;WIPE_END
G1 E-0.04000 F2100.000
G1 Z0.600 F10800.000
G1 X124.713 Y83.213
G1 Z0.200
G1 E0.80000 F2100.000
;TYPE:Perimeter
G1 F1200.000
G1 X124.713 Y87.674 E0.13987
G1 X121.174 Y91.213 E0.15692
G1 X120.290 Y91.213 E0.02771
G1 X120.290 Y83.210 E0.25093
G1 X76.710 Y83.210 E1.36643
G1 X76.710 Y126.790 E1.36643
G1 X95.711 Y126.790 E0.59576
G1 X95.711 Y128.676 E0.05913
G1 X93.174 Y131.213 E0.11249
G1 X75.825 Y131.213 E0.54396
G1 X71.287 Y126.675 E0.20122
G1 X71.287 Y83.325 E1.35921
M73 P2 R25
M73 Q2 S25
G1 X75.825 Y78.787 E0.20122
G1 X178.713 Y78.787 E3.22598
G1 X178.713 Y83.213 E0.13877
G1 X124.773 Y83.213 E1.69125
G1 X125.090 Y83.590 F10800.000
;TYPE:External perimeter
G1 F1200.000
G1 X125.090 Y87.830 E0.13295
G1 X121.330 Y91.590 E0.16672
G1 X119.913 Y91.590 E0.04443
G1 X119.913 Y83.587 E0.25093
G1 X77.087 Y83.587 E1.34278
G1 X77.087 Y126.413 E1.34278
M73 Q3 S25
G1 X96.088 Y126.413 E0.59576
M73 P3 R25
G1 X96.088 Y128.832 E0.07585
G1 X93.330 Y131.590 E0.12229
G1 X75.669 Y131.590 E0.55376
G1 X70.910 Y126.831 E0.21101
G1 X70.910 Y83.169 E1.36900
G1 X75.669 Y78.410 E0.21101
G1 X179.090 Y78.410 E3.24270
G1 X179.090 Y83.590 E0.16242
G1 X125.150 Y83.590 E1.69125
G1 X124.690 Y83.603 F10800.000
;WIPE_START
G1 F8640.000
G1 X125.103 Y86.881 E-0.76000
;WIPE_END
G1 E-0.04000 F2100.000
G1 Z0.600 F10800.000
G1 X178.600 Y79.664
G1 Z0.200
G1 E0.80000 F2100.000
;TYPE:Solid infill
;WIDTH:0.420836
G1 F1200.000
G1 X178.005 Y79.070 E0.02641
G1 X177.471 Y79.070 E0.01679
G1 X178.430 Y80.029 E0.04262
G1 X178.430 Y80.563 E0.01679
G1 X176.937 Y79.070 E0.06637
G1 X176.402 Y79.070 E0.01679
G1 X178.430 Y81.098 E0.09013
G1 X178.430 Y81.632 E0.01679
G1 X175.868 Y79.070 E0.11388
G1 X175.333 Y79.070 E0.01679
G1 X178.430 Y82.167 E0.13763
G1 X178.430 Y82.701 E0.01679
G1 X174.799 Y79.070 E0.16138
G1 X174.264 Y79.070 E0.01679
G1 X178.125 Y82.930 E0.17155
M73 Q4 S25
G1 X177.590 Y82.930 E0.01679
G1 X173.730 Y79.070 E0.17155
M73 P4 R25
G1 X173.195 Y79.070 E0.01679
G1 X177.056 Y82.930 E0.17155
G1 X176.521 Y82.930 E0.01679
G1 X172.661 Y79.070 E0.17155
G1 X172.126 Y79.070 E0.01679
G1 X175.987 Y82.930 E0.17155
G1 X175.452 Y82.930 E0.01679
G1 X171.592 Y79.070 E0.17155
G1 X171.058 Y79.070 E0.01679
G1 X174.918 Y82.930 E0.17155
G1 X174.383 Y82.930 E0.01679
G1 X170.523 Y79.070 E0.17155
G1 X169.989 Y79.070 E0.01679
G1 X173.849 Y82.930 E0.17155
G1 X173.314 Y82.930 E0.01679
G1 X169.454 Y79.070 E0.17155
G1 X168.920 Y79.070 E0.01679
G1 X172.780 Y82.930 E0.17155
G1 X172.246 Y82.930 E0.01679
G1 X168.385 Y79.070 E0.17155
G1 X167.851 Y79.070 E0.01679
G1 X171.711 Y82.930 E0.17155
G1 X171.177 Y82.930 E0.01679
G1 X167.316 Y79.070 E0.17155
G1 X166.782 Y79.070 E0.01679
G1 X170.642 Y82.930 E0.17155
G1 X170.108 Y82.930 E0.01679
G1 X166.247 Y79.070 E0.17155
G1 X165.713 Y79.070 E0.01679
G1 X169.573 Y82.930 E0.17155
G1 X169.039 Y82.930 E0.01679
G1 X165.179 Y79.070 E0.17155
G1 X164.644 Y79.070 E0.01679
G1 X168.504 Y82.930 E0.17155
G1 X167.970 Y82.930 E0.01679
G1 X164.110 Y79.070 E0.17155
G1 X163.575 Y79.070 E0.01679
G1 X167.435 Y82.930 E0.17155
G1 X166.901 Y82.930 E0.01679
G1 X163.041 Y79.070 E0.17155
G1 X162.506 Y79.070 E0.01679
G1 X166.367 Y82.930 E0.17155
G1 X165.832 Y82.930 E0.01679
G1 X161.972 Y79.070 E0.17155
G1 X161.437 Y79.070 E0.01679
G1 X165.298 Y82.930 E0.17155
G1 X164.763 Y82.930 E0.01679
G1 X160.903 Y79.070 E0.17155
G1 X160.368 Y79.070 E0.01679
G1 X164.229 Y82.930 E0.17155
G1 X163.694 Y82.930 E0.01679
G1 X159.834 Y79.070 E0.17155
G1 X159.300 Y79.070 E0.01679
G1 X163.160 Y82.930 E0.17155
G1 X162.625 Y82.930 E0.01679
G1 X158.765 Y79.070 E0.17155
G1 X158.231 Y79.070 E0.01679
G1 X162.091 Y82.930 E0.17155
G1 X161.556 Y82.930 E0.01679
G1 X157.696 Y79.070 E0.17155
G1 X157.162 Y79.070 E0.01679
G1 X161.022 Y82.930 E0.17155
G1 X160.488 Y82.930 E0.01679
G1 X156.627 Y79.070 E0.17155
G1 X156.093 Y79.070 E0.01679
G1 X159.953 Y82.930 E0.17155
G1 X159.419 Y82.930 E0.01679
G1 X155.558 Y79.070 E0.17155
G1 X155.024 Y79.070 E0.01679
G1 X158.884 Y82.930 E0.17155
G1 X158.350 Y82.930 E0.01679
G1 X154.489 Y79.070 E0.17155
G1 X153.955 Y79.070 E0.01679
G1 X157.815 Y82.930 E0.17155
G1 X157.281 Y82.930 E0.01679
G1 X153.421 Y79.070 E0.17155
G1 X152.886 Y79.070 E0.01679
G1 X156.746 Y82.930 E0.17155
G1 X156.212 Y82.930 E0.01679
G1 X152.352 Y79.070 E0.17155
G1 X151.817 Y79.070 E0.01679
G1 X155.677 Y82.930 E0.17155
G1 X155.143 Y82.930 E0.01679
G1 X151.283 Y79.070 E0.17155
G1 X150.748 Y79.070 E0.01679
G1 X154.609 Y82.930 E0.17155
G1 X154.074 Y82.930 E0.01679
G1 X150.214 Y79.070 E0.17155
G1 X149.679 Y79.070 E0.01679
G1 X153.540 Y82.930 E0.17155
G1 X153.005 Y82.930 E0.01679
G1 X149.145 Y79.070 E0.17155
G1 X148.610 Y79.070 E0.01679
G1 X152.471 Y82.930 E0.17155
G1 X151.936 Y82.930 E0.01679
G1 X148.076 Y79.070 E0.17155
G1 X147.542 Y79.070 E0.01679
G1 X151.402 Y82.930 E0.17155
M73 Q5 S25
G1 X150.867 Y82.930 E0.01679
G1 X147.007 Y79.070 E0.17155
M73 P5 R25
G1 X146.473 Y79.070 E0.01679
G1 X150.333 Y82.930 E0.17155
G1 X149.798 Y82.930 E0.01679
G1 X145.938 Y79.070 E0.17155
G1 X145.404 Y79.070 E0.01679
G1 X149.264 Y82.930 E0.17155
G1 X148.730 Y82.930 E0.01679
G1 X144.869 Y79.070 E0.17155
G1 X144.335 Y79.070 E0.01679
G1 X148.195 Y82.930 E0.17155
G1 X147.661 Y82.930 E0.01679
G1 X143.800 Y79.070 E0.17155
G1 X143.266 Y79.070 E0.01679
G1 X147.126 Y82.930 E0.17155
G1 X146.592 Y82.930 E0.01679
G1 X142.731 Y79.070 E0.17155
G1 X142.197 Y79.070 E0.01679
G1 X146.057 Y82.930 E0.17155
G1 X145.523 Y82.930 E0.01679
G1 X141.663 Y79.070 E0.17155
G1 X141.128 Y79.070 E0.01679
G1 X144.988 Y82.930 E0.17155
G1 X144.454 Y82.930 E0.01679
G1 X140.594 Y79.070 E0.17155
M73 P5 R24
G1 X140.059 Y79.070 E0.01679
G1 X143.919 Y82.930 E0.17155
G1 X143.385 Y82.930 E0.01679
G1 X139.525 Y79.070 E0.17155
G1 X138.990 Y79.070 E0.01679
G1 X142.851 Y82.930 E0.17155
G1 X142.316 Y82.930 E0.01679
G1 X138.456 Y79.070 E0.17155
G1 X137.921 Y79.070 E0.01679
G1 X141.782 Y82.930 E0.17155
G1 X141.247 Y82.930 E0.01679
G1 X137.387 Y79.070 E0.17155
G1 X136.852 Y79.070 E0.01679
G1 X140.713 Y82.930 E0.17155
G1 X140.178 Y82.930 E0.01679
G1 X136.318 Y79.070 E0.17155
G1 X135.784 Y79.070 E0.01679
G1 X139.644 Y82.930 E0.17155
G1 X139.109 Y82.930 E0.01679
G1 X135.249 Y79.070 E0.17155
G1 X134.715 Y79.070 E0.01679
G1 X138.575 Y82.930 E0.17155
G1 X138.040 Y82.930 E0.01679
G1 X134.180 Y79.070 E0.17155
G1 X133.646 Y79.070 E0.01679
G1 X137.506 Y82.930 E0.17155
G1 X136.972 Y82.930 E0.01679
G1 X133.111 Y79.070 E0.17155
G1 X132.577 Y79.070 E0.01679
G1 X136.437 Y82.930 E0.17155
G1 X135.903 Y82.930 E0.01679
G1 X132.042 Y79.070 E0.17155
G1 X131.508 Y79.070 E0.01679
G1 X135.368 Y82.930 E0.17155
G1 X134.834 Y82.930 E0.01679
G1 X130.974 Y79.070 E0.17155
G1 X130.439 Y79.070 E0.01679
G1 X134.299 Y82.930 E0.17155
G1 X133.765 Y82.930 E0.01679
G1 X129.905 Y79.070 E0.17155
G1 X129.370 Y79.070 E0.01679
G1 X133.230 Y82.930 E0.17155
G1 X132.696 Y82.930 E0.01679
G1 X128.836 Y79.070 E0.17155
G1 X128.301 Y79.070 E0.01679
G1 X132.161 Y82.930 E0.17155
G1 X131.627 Y82.930 E0.01679
G1 X127.767 Y79.070 E0.17155
G1 X127.232 Y79.070 E0.01679
G1 X131.093 Y82.930 E0.17155
G1 X130.558 Y82.930 E0.01679
G1 X126.698 Y79.070 E0.17155
G1 X126.163 Y79.070 E0.01679
G1 X130.024 Y82.930 E0.17155
G1 X129.489 Y82.930 E0.01679
G1 X125.629 Y79.070 E0.17155
G1 X125.095 Y79.070 E0.01679
G1 X128.955 Y82.930 E0.17155
G1 X128.420 Y82.930 E0.01679
G1 X124.560 Y79.070 E0.17155
M73 Q5 S24
G1 X124.026 Y79.070 E0.01679
G1 X127.886 Y82.930 E0.17155
G1 X127.351 Y82.930 E0.01679
G1 X123.491 Y79.070 E0.17155
G1 X122.957 Y79.070 E0.01679
G1 X126.817 Y82.930 E0.17155
G1 X126.282 Y82.930 E0.01679
G1 X122.422 Y79.070 E0.17155
G1 X121.888 Y79.070 E0.01679
G1 X125.748 Y82.930 E0.17155
G1 X125.214 Y82.930 E0.01679
G1 X121.353 Y79.070 E0.17155
G1 X120.819 Y79.070 E0.01679
G1 X124.679 Y82.930 E0.17155
M73 Q6 S24
G1 X124.430 Y82.930 E0.00782
G1 X124.430 Y83.216 E0.00897
M73 P6 R24
G1 X120.284 Y79.070 E0.18423
G1 X119.750 Y79.070 E0.01679
G1 X124.430 Y83.750 E0.20799
G1 X124.430 Y84.284 E0.01679
G1 X119.216 Y79.070 E0.23174
G1 X118.681 Y79.070 E0.01679
G1 X124.430 Y84.819 E0.25549
G1 X124.430 Y85.353 E0.01679
G1 X118.147 Y79.070 E0.27924
G1 X117.612 Y79.070 E0.01679
G1 X124.430 Y85.888 E0.30299
G1 X124.430 Y86.422 E0.01679
G1 X117.078 Y79.070 E0.32674
G1 X116.543 Y79.070 E0.01679
G1 X124.430 Y86.957 E0.35049
G1 X124.430 Y87.491 E0.01679
G1 X120.573 Y83.634 E0.17142
G1 X120.573 Y84.168 E0.01679
G1 X124.196 Y87.791 E0.16100
G1 X123.928 Y88.058 E0.01188
G1 X120.573 Y84.703 E0.14912
G1 X120.573 Y85.237 E0.01679
G1 X123.661 Y88.326 E0.13725
G1 X123.394 Y88.593 E0.01188
G1 X120.573 Y85.772 E0.12537
G1 X120.573 Y86.306 E0.01679
G1 X123.127 Y88.860 E0.11350
G1 X122.860 Y89.127 E0.01188
G1 X120.573 Y86.841 E0.10162
G1 X120.573 Y87.375 E0.01679
G1 X122.592 Y89.395 E0.08975
G1 X122.325 Y89.662 E0.01188
G1 X120.573 Y87.910 E0.07787
G1 X120.573 Y88.444 E0.01679
G1 X122.058 Y89.929 E0.06599
G1 X121.791 Y90.196 E0.01188
G1 X120.573 Y88.978 E0.05412
G1 X120.573 Y89.513 E0.01679
G1 X121.523 Y90.464 E0.04224
G1 X121.256 Y90.731 E0.01188
G1 X120.573 Y90.047 E0.03037
G1 X120.573 Y90.582 E0.01679
G1 X121.091 Y91.100 E0.02302
;WIPE_START
G1 F8640.000
G1 X120.573 Y90.582 E-0.16913
G1 X120.573 Y90.047 E-0.12341
G1 X121.256 Y90.731 E-0.22314
G1 X121.523 Y90.464 E-0.08726
G1 X121.042 Y89.983 E-0.15706
;WIPE_END
G1 E-0.04000 F2100.000
G1 Z0.600 F10800.000
G1 X120.036 Y83.097
G1 Z0.200
G1 E0.80000 F2100.000
G1 F1200.000
G1 X116.009 Y79.070 E0.17896
G1 X115.474 Y79.070 E0.01679
G1 X119.332 Y82.927 E0.17142
G1 X118.797 Y82.927 E0.01679
G1 X114.940 Y79.070 E0.17142
G1 X114.405 Y79.070 E0.01679
G1 X118.263 Y82.927 E0.17142
G1 X117.728 Y82.927 E0.01679
G1 X113.871 Y79.070 E0.17142
G1 X113.337 Y79.070 E0.01679
G1 X117.194 Y82.927 E0.17142
G1 X116.659 Y82.927 E0.01679
G1 X112.802 Y79.070 E0.17142
G1 X112.268 Y79.070 E0.01679
G1 X116.125 Y82.927 E0.17142
G1 X115.590 Y82.927 E0.01679
G1 X111.733 Y79.070 E0.17142
G1 X111.199 Y79.070 E0.01679
G1 X115.056 Y82.927 E0.17142
G1 X114.521 Y82.927 E0.01679
G1 X110.664 Y79.070 E0.17142
G1 X110.130 Y79.070 E0.01679
G1 X113.987 Y82.927 E0.17142
G1 X113.453 Y82.927 E0.01679
G1 X109.595 Y79.070 E0.17142
G1 X109.061 Y79.070 E0.01679
G1 X112.918 Y82.927 E0.17142
G1 X112.384 Y82.927 E0.01679
G1 X108.526 Y79.070 E0.17142
G1 X107.992 Y79.070 E0.01679
G1 X111.849 Y82.927 E0.17142
G1 X111.315 Y82.927 E0.01679
G1 X107.458 Y79.070 E0.17142
G1 X106.923 Y79.070 E0.01679
G1 X110.780 Y82.927 E0.17142
G1 X110.246 Y82.927 E0.01679
G1 X106.389 Y79.070 E0.17142
G1 X105.854 Y79.070 E0.01679
G1 X109.711 Y82.927 E0.17142
G1 X109.177 Y82.927 E0.01679
G1 X105.320 Y79.070 E0.17142
G1 X104.785 Y79.070 E0.01679
G1 X108.643 Y82.927 E0.17142
G1 X108.108 Y82.927 E0.01679
G1 X104.251 Y79.070 E0.17142
G1 X103.716 Y79.070 E0.01679
G1 X107.574 Y82.927 E0.17142
G1 X107.039 Y82.927 E0.01679
G1 X103.182 Y79.070 E0.17142
G1 X102.647 Y79.070 E0.01679
G1 X106.505 Y82.927 E0.17142
G1 X105.970 Y82.927 E0.01679
G1 X102.113 Y79.070 E0.17142
G1 X101.579 Y79.070 E0.01679
G1 X105.436 Y82.927 E0.17142
G1 X104.901 Y82.927 E0.01679
M73 P7 R24
G1 X101.044 Y79.070 E0.17142
M73 Q7 S24
G1 X100.510 Y79.070 E0.01679
G1 X104.367 Y82.927 E0.17142
G1 X103.832 Y82.927 E0.01679
G1 X99.975 Y79.070 E0.17142
G1 X99.441 Y79.070 E0.01679
G1 X103.298 Y82.927 E0.17142
G1 X102.764 Y82.927 E0.01679
G1 X98.906 Y79.070 E0.17142
G1 X98.372 Y79.070 E0.01679
G1 X102.229 Y82.927 E0.17142
G1 X101.695 Y82.927 E0.01679
G1 X97.837 Y79.070 E0.17142
G1 X97.303 Y79.070 E0.01679
G1 X101.160 Y82.927 E0.17142
G1 X100.626 Y82.927 E0.01679
G1 X96.768 Y79.070 E0.17142
G1 X96.234 Y79.070 E0.01679
G1 X100.091 Y82.927 E0.17142
G1 X99.557 Y82.927 E0.01679
G1 X95.700 Y79.070 E0.17142
G1 X95.165 Y79.070 E0.01679
G1 X99.022 Y82.927 E0.17142
G1 X98.488 Y82.927 E0.01679
G1 X94.631 Y79.070 E0.17142
G1 X94.096 Y79.070 E0.01679
G1 X97.953 Y82.927 E0.17142
G1 X97.419 Y82.927 E0.01679
G1 X93.562 Y79.070 E0.17142
G1 X93.027 Y79.070 E0.01679
G1 X96.885 Y82.927 E0.17142
G1 X96.350 Y82.927 E0.01679
G1 X92.493 Y79.070 E0.17142
G1 X91.958 Y79.070 E0.01679
G1 X95.816 Y82.927 E0.17142
G1 X95.281 Y82.927 E0.01679
G1 X91.424 Y79.070 E0.17142
G1 X90.889 Y79.070 E0.01679
G1 X94.747 Y82.927 E0.17142
G1 X94.212 Y82.927 E0.01679
G1 X90.355 Y79.070 E0.17142
G1 X89.821 Y79.070 E0.01679
G1 X93.678 Y82.927 E0.17142
G1 X93.143 Y82.927 E0.01679
G1 X89.286 Y79.070 E0.17142
G1 X88.752 Y79.070 E0.01679
G1 X92.609 Y82.927 E0.17142
G1 X92.074 Y82.927 E0.01679
G1 X88.217 Y79.070 E0.17142
G1 X87.683 Y79.070 E0.01679
G1 X91.540 Y82.927 E0.17142
G1 X91.006 Y82.927 E0.01679
G1 X87.148 Y79.070 E0.17142
G1 X86.614 Y79.070 E0.01679
G1 X90.471 Y82.927 E0.17142
G1 X89.937 Y82.927 E0.01679
G1 X86.079 Y79.070 E0.17142
G1 X85.545 Y79.070 E0.01679
G1 X89.402 Y82.927 E0.17142
G1 X88.868 Y82.927 E0.01679
G1 X85.010 Y79.070 E0.17142
G1 X84.476 Y79.070 E0.01679
G1 X88.333 Y82.927 E0.17142
G1 X87.799 Y82.927 E0.01679
G1 X83.942 Y79.070 E0.17142
G1 X83.407 Y79.070 E0.01679
G1 X87.264 Y82.927 E0.17142
G1 X86.730 Y82.927 E0.01679
G1 X82.873 Y79.070 E0.17142
G1 X82.338 Y79.070 E0.01679
G1 X86.195 Y82.927 E0.17142
G1 X85.661 Y82.927 E0.01679
G1 X81.804 Y79.070 E0.17142
G1 X81.269 Y79.070 E0.01679
G1 X85.127 Y82.927 E0.17142
G1 X84.592 Y82.927 E0.01679
G1 X80.735 Y79.070 E0.17142
G1 X80.200 Y79.070 E0.01679
G1 X84.058 Y82.927 E0.17142
G1 X83.523 Y82.927 E0.01679
G1 X79.666 Y79.070 E0.17142
G1 X79.131 Y79.070 E0.01679
