; generated by PrusaSlicer 2.3.3+win64 on 2022-02-26 at 05:30:49 UTC

; 

; external perimeters extrusion width = 0.60mm
; perimeters extrusion width = 0.50mm
; infill extrusion width = 0.50mm
; solid infill extrusion width = 0.50mm
; top infill extrusion width = 0.45mm
; first layer extrusion width = 0.42mm

M73 P0 R22
M73 Q0 S23
M201 X1000 Y1000 Z200 E5000 ; sets maximum accelerations, mm/sec^2
M203 X200 Y200 Z12 E120 ; sets maximum feedrates, mm/sec
M204 P1250 R1250 T1250 ; sets acceleration (P, T) and retract acceleration (R), mm/sec^2
M205 X8.00 Y8.00 Z0.40 E4.50 ; sets the jerk limits, mm/sec
M205 S0 T0 ; sets the minimum extruding and travel feed rate, mm/sec
M107
;TYPE:Custom
M862.3 P "MK3S" ; printer model check
M862.1 P0.4 ; nozzle diameter check
M115 U3.9.3 ; tell printer latest fw version
G90 ; use absolute coordinates
M83 ; extruder relative mode
M104 S215 ; set extruder temp
M140 S60 ; set bed temp
M190 S60 ; wait for bed temp
M109 S215 ; wait for extruder temp
G28 W ; home all without mesh bed level
G80 ; mesh bed leveling
G1 Y-3.0 F1000.0 ; go outside print area
G92 E0.0
G1 X60.0 E9.0 F1000.0 ; intro line
G1 X100.0 E12.5 F1000.0 ; intro line
G92 E0.0
M221 S95

; Don't change E values below. Excessive value can damage the printer.

M907 E538 ; set extruder motor current
G21 ; set units to millimeters
G90 ; use absolute coordinates
M83 ; use relative distances for extrusion
M900 K0.05 ; Filament gcode LA 1.5
M900 K30 ; Filament gcode LA 1.0
;LAYER_CHANGE
;Z:0.2
;HEIGHT:0.2
;BEFORE_LAYER_CHANGE
G92 E0.0
;0.2


G1 E-0.80000 F2100.000
G1 Z0.400 F10800.000
;AFTER_LAYER_CHANGE
;0.2
G1 X97.199 Y75.761
G1 Z0.200
G1 E0.80000 F2100.000
M204 S1000
;TYPE:Skirt
;WIDTH:0.42
G1 F1200.000
G1 X97.979 Y75.623 E0.02484
G1 X157.004 Y75.623 E1.85067
M73 Q0 S22
G1 X157.778 Y75.754 E0.02461
G1 X158.464 Y76.127 E0.02449
G1 X158.992 Y76.703 E0.02449
G1 X159.306 Y77.422 E0.02461
G1 X159.377 Y77.976 E0.01752
G1 X159.377 Y84.011 E0.18923
G1 X159.277 Y84.683 E0.02130
G1 X144.205 Y128.889 E1.46439
G1 X143.724 Y129.638 E0.02790
G1 X139.489 Y133.854 E0.18735
G1 X138.801 Y134.239 E0.02473
G1 X138.028 Y134.377 E0.02461
G1 X97.737 Y134.363 E1.26331
M73 P1 R22
M73 Q1 S22
G1 X97.030 Y134.171 E0.02296
G1 X96.418 Y133.775 E0.02284
G1 X91.146 Y128.489 E0.23408
G1 X90.761 Y127.801 E0.02473
G1 X90.623 Y127.028 E0.02461
G1 X90.635 Y82.756 E1.38813
G1 X90.825 Y82.041 E0.02319
G1 X91.225 Y81.418 E0.02319
G1 X96.511 Y76.146 E0.23408
G1 X97.147 Y75.791 E0.02285
; printing object Stylus mount.stl id:0 copy 0
;WIPE_START
G1 F8640.000
G1 X97.979 Y75.623 E-0.19610
G1 X100.422 Y75.623 E-0.56390
;WIPE_END
G1 E-0.04000 F2100.000
G1 Z0.600 F10800.000
G1 X147.213 Y83.213
G1 Z0.200
G1 E0.80000 F2100.000
;TYPE:Perimeter
G1 F1200.000
G1 X147.213 Y87.674 E0.13987
G1 X143.674 Y91.213 E0.15692
G1 X142.790 Y91.213 E0.02771
G1 X142.790 Y83.210 E0.25093
G1 X99.210 Y83.210 E1.36643
G1 X99.210 Y126.790 E1.36643
G1 X141.213 Y126.790 E1.31697
G1 X141.213 Y127.675 E0.02775
G1 X137.675 Y131.213 E0.15688
M73 Q2 S22
G1 X98.325 Y131.213 E1.23379
M73 P2 R22
G1 X93.787 Y126.675 E0.20122
G1 X93.787 Y83.325 E1.35921
G1 X98.325 Y78.787 E0.20122
G1 X156.213 Y78.787 E1.81503
G1 X156.213 Y83.213 E0.13877
G1 X147.273 Y83.213 E0.28031
G1 X147.590 Y83.590 F10800.000
;TYPE:External perimeter
G1 F1200.000
G1 X147.590 Y87.830 E0.13295
G1 X143.830 Y91.590 E0.16672
G1 X142.413 Y91.590 E0.04443
G1 X142.413 Y83.587 E0.25093
G1 X99.587 Y83.587 E1.34278
G1 X99.587 Y126.413 E1.34278
M73 P3 R22
M73 Q3 S22
G1 X141.590 Y126.413 E1.31697
G1 X141.590 Y127.831 E0.04447
G1 X137.831 Y131.590 E0.16667
G1 X98.169 Y131.590 E1.24358
G1 X93.410 Y126.831 E0.21101
G1 X93.410 Y83.169 E1.36900
G1 X98.169 Y78.410 E0.21101
G1 X156.590 Y78.410 E1.83175
G1 X156.590 Y83.590 E0.16242
G1 X147.650 Y83.590 E0.28031
G1 X147.196 Y83.659 F10800.000
;WIPE_START
G1 F8640.000
G1 X147.603 Y86.881 E-0.76000
;WIPE_END
G1 E-0.04000 F2100.000
G1 Z0.600 F10800.000
G1 X156.100 Y79.663
G1 Z0.200
G1 E0.80000 F2100.000
;TYPE:Solid infill
;WIDTH:0.420473
G1 F1200.000
G1 X155.506 Y79.070 E0.02635
G1 X154.972 Y79.070 E0.01676
G1 X155.930 Y80.028 E0.04253
G1 X155.930 Y80.562 E0.01676
G1 X154.438 Y79.070 E0.06623
G1 X153.904 Y79.070 E0.01676
G1 X155.930 Y81.096 E0.08994
G1 X155.930 Y81.630 E0.01676
G1 X153.370 Y79.070 E0.11364
G1 X152.837 Y79.070 E0.01676
G1 X155.930 Y82.163 E0.13735
G1 X155.930 Y82.697 E0.01676
G1 X152.303 Y79.070 E0.16105
G1 X151.769 Y79.070 E0.01676
G1 X155.629 Y82.930 E0.17138
G1 X155.095 Y82.930 E0.01676
G1 X151.235 Y79.070 E0.17138
M73 P4 R22
M73 Q4 S22
G1 X150.701 Y79.070 E0.01676
G1 X154.561 Y82.930 E0.17138
G1 X154.027 Y82.930 E0.01676
G1 X150.167 Y79.070 E0.17138
G1 X149.633 Y79.070 E0.01676
G1 X153.493 Y82.930 E0.17138
G1 X152.959 Y82.930 E0.01676
G1 X149.099 Y79.070 E0.17138
G1 X148.565 Y79.070 E0.01676
G1 X152.425 Y82.930 E0.17138
G1 X151.891 Y82.930 E0.01676
G1 X148.031 Y79.070 E0.17138
G1 X147.497 Y79.070 E0.01676
G1 X151.357 Y82.930 E0.17138
G1 X150.823 Y82.930 E0.01676
G1 X146.963 Y79.070 E0.17138
G1 X146.429 Y79.070 E0.01676
G1 X150.289 Y82.930 E0.17138
G1 X149.756 Y82.930 E0.01676
G1 X145.895 Y79.070 E0.17138
G1 X145.361 Y79.070 E0.01676
G1 X149.222 Y82.930 E0.17138
G1 X148.688 Y82.930 E0.01676
G1 X144.827 Y79.070 E0.17138
G1 X144.293 Y79.070 E0.01676
G1 X148.154 Y82.930 E0.17138
G1 X147.620 Y82.930 E0.01676
G1 X143.760 Y79.070 E0.17138
G1 X143.226 Y79.070 E0.01676
G1 X147.086 Y82.930 E0.17138
G1 X146.930 Y82.930 E0.00489
G1 X146.930 Y83.308 E0.01187
G1 X142.692 Y79.070 E0.18818
M73 P4 R21
G1 X142.158 Y79.070 E0.01676
G1 X146.930 Y83.842 E0.21188
G1 X146.930 Y84.376 E0.01676
G1 X141.624 Y79.070 E0.23559
G1 X141.090 Y79.070 E0.01676
G1 X146.930 Y84.910 E0.25929
G1 X146.930 Y85.444 E0.01676
G1 X140.556 Y79.070 E0.28300
G1 X140.022 Y79.070 E0.01676
G1 X146.930 Y85.978 E0.30670
G1 X146.930 Y86.512 E0.01676
G1 X139.488 Y79.070 E0.33041
G1 X138.954 Y79.070 E0.01676
G1 X146.930 Y87.046 E0.35412
G1 X146.919 Y87.568 E0.01640
G1 X143.073 Y83.723 E0.17074
G1 X143.073 Y84.257 E0.01676
G1 X146.652 Y87.835 E0.15889
G1 X146.385 Y88.102 E0.01185
G1 X143.073 Y84.791 E0.14703
G1 X143.073 Y85.324 E0.01676
G1 X146.118 Y88.369 E0.13518
G1 X145.851 Y88.636 E0.01185
G1 X143.073 Y85.858 E0.12333
G1 X143.073 Y86.392 E0.01676
G1 X145.584 Y88.903 E0.11148
G1 X145.317 Y89.170 E0.01185
G1 X143.073 Y86.926 E0.09962
G1 X143.073 Y87.460 E0.01676
G1 X145.050 Y89.437 E0.08777
G1 X144.783 Y89.704 E0.01185
G1 X143.073 Y87.994 E0.07592
G1 X143.073 Y88.528 E0.01676
G1 X144.516 Y89.971 E0.06407
G1 X144.249 Y90.238 E0.01185
G1 X143.073 Y89.062 E0.05221
G1 X143.073 Y89.596 E0.01676
G1 X143.982 Y90.505 E0.04036
G1 X143.715 Y90.772 E0.01185
G1 X143.073 Y90.130 E0.02851
G1 X143.073 Y90.664 E0.01676
G1 X143.509 Y91.100 E0.01935
;WIPE_START
G1 F8640.000
G1 X143.073 Y90.664 E-0.14236
G1 X143.073 Y90.130 E-0.12329
G1 X143.715 Y90.772 E-0.20967
G1 X143.982 Y90.505 E-0.08718
G1 X143.377 Y89.900 E-0.19751
;WIPE_END
G1 E-0.04000 F2100.000
G1 Z0.600 F10800.000
G1 X142.447 Y83.097
G1 Z0.200
G1 E0.80000 F2100.000
G1 F1200.000
G1 X138.420 Y79.070 E0.17879
G1 X137.886 Y79.070 E0.01676
G1 X141.743 Y82.927 E0.17125
G1 X141.209 Y82.927 E0.01676
G1 X137.352 Y79.070 E0.17125
G1 X136.818 Y79.070 E0.01676
G1 X140.676 Y82.927 E0.17125
G1 X140.142 Y82.927 E0.01676
G1 X136.284 Y79.070 E0.17125
G1 X135.750 Y79.070 E0.01676
G1 X139.608 Y82.927 E0.17125
G1 X139.074 Y82.927 E0.01676
G1 X135.216 Y79.070 E0.17125
M73 P5 R21
M73 Q5 S22
G1 X134.683 Y79.070 E0.01676
G1 X138.540 Y82.927 E0.17125
G1 X138.006 Y82.927 E0.01676
G1 X134.149 Y79.070 E0.17125
G1 X133.615 Y79.070 E0.01676
G1 X137.472 Y82.927 E0.17125
G1 X136.938 Y82.927 E0.01676
G1 X133.081 Y79.070 E0.17125
G1 X132.547 Y79.070 E0.01676
G1 X136.404 Y82.927 E0.17125
G1 X135.870 Y82.927 E0.01676
G1 X132.013 Y79.070 E0.17125
G1 X131.479 Y79.070 E0.01676
G1 X135.336 Y82.927 E0.17125
G1 X134.802 Y82.927 E0.01676
M73 Q5 S21
G1 X130.945 Y79.070 E0.17125
G1 X130.411 Y79.070 E0.01676
G1 X134.268 Y82.927 E0.17125
G1 X133.734 Y82.927 E0.01676
G1 X129.877 Y79.070 E0.17125
G1 X129.343 Y79.070 E0.01676
G1 X133.200 Y82.927 E0.17125
G1 X132.666 Y82.927 E0.01676
G1 X128.809 Y79.070 E0.17125
G1 X128.275 Y79.070 E0.01676
G1 X132.132 Y82.927 E0.17125
G1 X131.599 Y82.927 E0.01676
G1 X127.741 Y79.070 E0.17125
G1 X127.207 Y79.070 E0.01676
G1 X131.065 Y82.927 E0.17125
G1 X130.531 Y82.927 E0.01676
G1 X126.673 Y79.070 E0.17125
G1 X126.139 Y79.070 E0.01676
G1 X129.997 Y82.927 E0.17125
G1 X129.463 Y82.927 E0.01676
G1 X125.606 Y79.070 E0.17125
G1 X125.072 Y79.070 E0.01676
G1 X128.929 Y82.927 E0.17125
G1 X128.395 Y82.927 E0.01676
G1 X124.538 Y79.070 E0.17125
G1 X124.004 Y79.070 E0.01676
G1 X127.861 Y82.927 E0.17125
G1 X127.327 Y82.927 E0.01676
G1 X123.470 Y79.070 E0.17125
G1 X122.936 Y79.070 E0.01676
G1 X126.793 Y82.927 E0.17125
G1 X126.259 Y82.927 E0.01676
G1 X122.402 Y79.070 E0.17125
G1 X121.868 Y79.070 E0.01676
G1 X125.725 Y82.927 E0.17125
G1 X125.191 Y82.927 E0.01676
G1 X121.334 Y79.070 E0.17125
G1 X120.800 Y79.070 E0.01676
G1 X124.657 Y82.927 E0.17125
G1 X124.123 Y82.927 E0.01676
G1 X120.266 Y79.070 E0.17125
G1 X119.732 Y79.070 E0.01676
G1 X123.589 Y82.927 E0.17125
G1 X123.056 Y82.927 E0.01676
G1 X119.198 Y79.070 E0.17125
G1 X118.664 Y79.070 E0.01676
G1 X122.522 Y82.927 E0.17125
G1 X121.988 Y82.927 E0.01676
G1 X118.130 Y79.070 E0.17125
G1 X117.596 Y79.070 E0.01676
G1 X121.454 Y82.927 E0.17125
G1 X120.920 Y82.927 E0.01676
G1 X117.062 Y79.070 E0.17125
G1 X116.529 Y79.070 E0.01676
G1 X120.386 Y82.927 E0.17125
G1 X119.852 Y82.927 E0.01676
G1 X115.995 Y79.070 E0.17125
G1 X115.461 Y79.070 E0.01676
G1 X119.318 Y82.927 E0.17125
G1 X118.784 Y82.927 E0.01676
G1 X114.927 Y79.070 E0.17125
G1 X114.393 Y79.070 E0.01676
G1 X118.250 Y82.927 E0.17125
G1 X117.716 Y82.927 E0.01676
G1 X113.859 Y79.070 E0.17125
G1 X113.325 Y79.070 E0.01676
G1 X117.182 Y82.927 E0.17125
G1 X116.648 Y82.927 E0.01676
G1 X112.791 Y79.070 E0.17125
G1 X112.257 Y79.070 E0.01676
G1 X116.114 Y82.927 E0.17125
M73 P6 R21
G1 X115.580 Y82.927 E0.01676
G1 X111.723 Y79.070 E0.17125
M73 Q6 S21
G1 X111.189 Y79.070 E0.01676
G1 X115.046 Y82.927 E0.17125
G1 X114.512 Y82.927 E0.01676
G1 X110.655 Y79.070 E0.17125
G1 X110.121 Y79.070 E0.01676
G1 X113.979 Y82.927 E0.17125
G1 X113.445 Y82.927 E0.01676
G1 X109.587 Y79.070 E0.17125
G1 X109.053 Y79.070 E0.01676
G1 X112.911 Y82.927 E0.17125
G1 X112.377 Y82.927 E0.01676
G1 X108.519 Y79.070 E0.17125
G1 X107.986 Y79.070 E0.01676
G1 X111.843 Y82.927 E0.17125
G1 X111.309 Y82.927 E0.01676
G1 X107.452 Y79.070 E0.17125
G1 X106.918 Y79.070 E0.01676
G1 X110.775 Y82.927 E0.17125
G1 X110.241 Y82.927 E0.01676
G1 X106.384 Y79.070 E0.17125
G1 X105.850 Y79.070 E0.01676
G1 X109.707 Y82.927 E0.17125
G1 X109.173 Y82.927 E0.01676
G1 X105.316 Y79.070 E0.17125
G1 X104.782 Y79.070 E0.01676
G1 X108.639 Y82.927 E0.17125
G1 X108.105 Y82.927 E0.01676
G1 X104.248 Y79.070 E0.17125
G1 X103.714 Y79.070 E0.01676
G1 X107.571 Y82.927 E0.17125
G1 X107.037 Y82.927 E0.01676
G1 X103.180 Y79.070 E0.17125
G1 X102.646 Y79.070 E0.01676
G1 X106.503 Y82.927 E0.17125
G1 X105.969 Y82.927 E0.01676
G1 X102.112 Y79.070 E0.17125
G1 X101.578 Y79.070 E0.01676
G1 X105.435 Y82.927 E0.17125
G1 X104.902 Y82.927 E0.01676
G1 X101.044 Y79.070 E0.17125
G1 X100.510 Y79.070 E0.01676
G1 X104.368 Y82.927 E0.17125
G1 X103.834 Y82.927 E0.01676
G1 X99.976 Y79.070 E0.17125
G1 X99.442 Y79.070 E0.01676
G1 X103.300 Y82.927 E0.17125
G1 X102.766 Y82.927 E0.01676
G1 X98.909 Y79.070 E0.17125
G1 X98.442 Y79.070 E0.01464
G1 X98.408 Y79.104 E0.00150
G1 X102.232 Y82.927 E0.16975
G1 X101.698 Y82.927 E0.01676
G1 X98.141 Y79.371 E0.15790
G1 X97.874 Y79.638 E0.01185
G1 X101.164 Y82.927 E0.14605
G1 X100.630 Y82.927 E0.01676
G1 X97.607 Y79.905 E0.13419
G1 X97.340 Y80.172 E0.01185
G1 X100.096 Y82.927 E0.12234
G1 X99.562 Y82.927 E0.01676
G1 X97.074 Y80.439 E0.11049
G1 X96.807 Y80.705 E0.01185
G1 X99.028 Y82.927 E0.09863
G1 X98.927 Y82.927 E0.00317
G1 X98.927 Y83.360 E0.01359
G1 X96.540 Y80.972 E0.10600
G1 X96.273 Y81.239 E0.01185
G1 X98.927 Y83.894 E0.11785
G1 X98.927 Y84.428 E0.01676
G1 X96.006 Y81.506 E0.12971
G1 X95.739 Y81.773 E0.01185
G1 X98.927 Y84.962 E0.14156
G1 X98.927 Y85.496 E0.01676
G1 X95.472 Y82.040 E0.15341
G1 X95.205 Y82.307 E0.01185
G1 X98.927 Y86.030 E0.16526
G1 X98.927 Y86.564 E0.01676
G1 X94.938 Y82.574 E0.17712
G1 X94.671 Y82.841 E0.01185
G1 X98.927 Y87.098 E0.18897
G1 X98.927 Y87.632 E0.01676
G1 X94.404 Y83.108 E0.20082
G1 X94.137 Y83.375 E0.01185
G1 X98.927 Y88.165 E0.21268
G1 X98.927 Y88.699 E0.01676
G1 X94.070 Y83.842 E0.21565
G1 X94.070 Y84.376 E0.01676
G1 X98.927 Y89.233 E0.21565
G1 X98.927 Y89.767 E0.01676
G1 X94.070 Y84.910 E0.21565
M73 P7 R21
G1 X94.070 Y85.444 E0.01676
G1 X98.927 Y90.301 E0.21565
M73 Q7 S21
G1 X98.927 Y90.835 E0.01676
G1 X94.070 Y85.978 E0.21565
G1 X94.070 Y86.512 E0.01676
G1 X98.927 Y91.369 E0.21565
G1 X98.927 Y91.903 E0.01676
G1 X94.070 Y87.046 E0.21565
G1 X94.070 Y87.580 E0.01676
G1 X98.927 Y92.437 E0.21565
G1 X98.927 Y92.971 E0.01676
G1 X94.070 Y88.114 E0.21565
G1 X94.070 Y88.648 E0.01676
G1 X98.927 Y93.505 E0.21565
G1 X98.927 Y94.039 E0.01676
G1 X94.070 Y89.182 E0.21565
G1 X94.070 Y89.716 E0.01676
G1 X98.927 Y94.573 E0.21565
G1 X98.927 Y95.107 E0.01676
G1 X94.070 Y90.249 E0.21565
G1 X94.070 Y90.783 E0.01676
G1 X98.927 Y95.641 E0.21565
G1 X98.927 Y96.175 E0.01676
G1 X94.070 Y91.317 E0.21565
G1 X94.070 Y91.851 E0.01676
G1 X98.927 Y96.709 E0.21565
G1 X98.927 Y97.242 E0.01676
G1 X94.070 Y92.385 E0.21565
G1 X94.070 Y92.919 E0.01676
G1 X98.927 Y97.776 E0.21565
G1 X98.927 Y98.310 E0.01676
G1 X94.070 Y93.453 E0.21565
G1 X94.070 Y93.987 E0.01676
G1 X98.927 Y98.844 E0.21565
G1 X98.927 Y99.378 E0.01676
G1 X94.070 Y94.521 E0.21565
G1 X94.070 Y95.055 E0.01676
G1 X98.927 Y99.912 E0.21565
G1 X98.927 Y100.446 E0.01676
G1 X94.070 Y95.589 E0.21565
G1 X94.070 Y96.123 E0.01676
G1 X98.927 Y100.980 E0.21565
G1 X98.927 Y101.514 E0.01676
G1 X94.070 Y96.657 E0.21565
G1 X94.070 Y97.191 E0.01676
G1 X98.927 Y102.048 E0.21565
G1 X98.927 Y102.582 E0.01676
G1 X94.070 Y97.725 E0.21565
G1 X94.070 Y98.259 E0.01676
G1 X98.927 Y103.116 E0.21565
G1 X98.927 Y103.650 E0.01676
G1 X94.070 Y98.793 E0.21565
G1 X94.070 Y99.326 E0.01676
G1 X98.927 Y104.184 E0.21565
G1 X98.927 Y104.718 E0.01676
G1 X94.070 Y99.860 E0.21565
G1 X94.070 Y100.394 E0.01676
G1 X98.927 Y105.252 E0.21565
G1 X98.927 Y105.786 E0.01676
G1 X94.070 Y100.928 E0.21565
G1 X94.070 Y101.462 E0.01676
G1 X98.927 Y106.319 E0.21565
G1 X98.927 Y106.853 E0.01676
G1 X94.070 Y101.996 E0.21565
G1 X94.070 Y102.530 E0.01676
G1 X98.927 Y107.387 E0.21565
G1 X98.927 Y107.921 E0.01676
G1 X94.070 Y103.064 E0.21565
G1 X94.070 Y103.598 E0.01676
G1 X98.927 Y108.455 E0.21565
G1 X98.927 Y108.989 E0.01676
G1 X94.070 Y104.132 E0.21565
M73 P8 R21
G1 X94.070 Y104.666 E0.01676
G1 X98.927 Y109.523 E0.21565
M73 Q8 S21
G1 X98.927 Y110.057 E0.01676
G1 X94.070 Y105.200 E0.21565
G1 X94.070 Y105.734 E0.01676
G1 X98.927 Y110.591 E0.21565
G1 X98.927 Y111.125 E0.01676
G1 X94.070 Y106.268 E0.21565
G1 X94.070 Y106.802 E0.01676
G1 X98.927 Y111.659 E0.21565
G1 X98.927 Y112.193 E0.01676
G1 X94.070 Y107.336 E0.21565
G1 X94.070 Y107.869 E0.01676
G1 X98.927 Y112.727 E0.21565
G1 X98.927 Y113.261 E0.01676
G1 X94.070 Y108.403 E0.21565
G1 X94.070 Y108.937 E0.01676
G1 X98.927 Y113.795 E0.21565
G1 X98.927 Y114.329 E0.01676
G1 X94.070 Y109.471 E0.21565
G1 X94.070 Y110.005 E0.01676
G1 X98.927 Y114.862 E0.21565
G1 X98.927 Y115.396 E0.01676
G1 X94.070 Y110.539 E0.21565
G1 X94.070 Y111.073 E0.01676
G1 X98.927 Y115.930 E0.21565
G1 X98.927 Y116.464 E0.01676
G1 X94.070 Y111.607 E0.21565
G1 X94.070 Y112.141 E0.01676
G1 X98.927 Y116.998 E0.21565
G1 X98.927 Y117.532 E0.01676
G1 X94.070 Y112.675 E0.21565
G1 X94.070 Y113.209 E0.01676
G1 X98.927 Y118.066 E0.21565
G1 X98.927 Y118.600 E0.01676
G1 X94.070 Y113.743 E0.21565
G1 X94.070 Y114.277 E0.01676
G1 X98.927 Y119.134 E0.21565
G1 X98.927 Y119.668 E0.01676
G1 X94.070 Y114.811 E0.21565
G1 X94.070 Y115.345 E0.01676
G1 X98.927 Y120.202 E0.21565
G1 X98.927 Y120.736 E0.01676
G1 X94.070 Y115.879 E0.21565
G1 X94.070 Y116.413 E0.01676
G1 X98.927 Y121.270 E0.21565
